src/icons/solid/calendar.svg

<svg width="20" height="20" viewBox="0 0 20 20" fill="none" xmlns="http://www.w3.org/2000/svg">

<path fill-rule="evenodd" clip-rule="evenodd" d="M6 2C5.44772 2 5 2.44772 5 3V4H4C2.89543 4 2 4.89543 2 6V16C2 17.1046 2.89543 18 4 18H16C17.1046 18 18 17.1046 18 16V6C18 4.89543 17.1046 4 16 4H15V3C15 2.44772 14.5523 2 14 2C13.4477 2 13 2.44772 13 3V4H7V3C7 2.44772 6.55228 2 6 2ZM6 7C5.44772 7 5 7.44772 5 8C5 8.55228 5.44772 9 6 9H14C14.5523 9 15 8.55228 15 8C15 7.44772 14.5523 7 14 7H6Z" fill="#4A5568"/>
</svg>

<svg xmlns="http://www.w3.org/2000/svg" viewBox="0 0 20 20" fill="currentColor">
  <path fill-rule="evenodd" d="M6 2a1 1 0 00-1 1v1H4a2 2 0 00-2 2v10a2 2 0 002 2h12a2 2 0 002-2V6a2 2 0 00-2-2h-1V3a1 1 0 10-2 0v1H7V3a1 1 0 00-1-1zm0 5a1 1 0 000 2h8a1 1 0 100-2H6z" clip-rule="evenodd"/>
</svg>
